X:001 
T:Aghavas Reel 1, The 
F:file ID: cre.5/001aghav1
B:CRE5.144 (Ril Achadh an Measa 1)
M:4/4
%%Q:180
L:1/8
R:reel
K:Em
EBBA B3d|e2dB AFDF|EBBA B3^c|dBA^c BEED|
EBBA B3d|e2dB AFDF|EB~B2 EBEB|dBAF E2~E2||
eB~B2 efge|fed^c dfaf|eB~B2 efge|fedf efgf|
eB~B2 efge|fed^c dfaf|g2ge f2fe|dBA^c BEED|E8|]

%%%

